X:171
T:Maid in the cherry tree
R:Reel
O:Ireland
S:O'Neill's 1538
B:O'Neill's 1538
Z:Transcription, minor arr., chords:Mike Long
M:C|
L:1/8
K:D
(cd) |:\
"A"eAAF "G"G2 (cd)|"A"eA ~A2 "G"gefd|"A"eAAF "G"G2 (Bc)|"G"dBgB "A"{c}BA A2:|
"A"ea~a2 "G"baag|"A"eaag "G"(3(efg) dg|"A"ea~a2 "G"baaf|"G"gedB "A"{c}BA A2|
"A"ea~a2 "G"baag|"A"eaaf "G"g2 (ga)|"G"bgaf gefd|"G"edgB "(A)"{c}BA A2 |]
